X:0653
T:German Waltz.
M:3/8
L:1/16
Q:3/8=50
I: :: :: :: ::
N:upbeats need fixed
Z:Jack Campin * www.campin.me.uk * 2009
K:C
G2|c4  eg|fedc BA|G2A2B2|cdefg2|c4  eg|fedc BA|G2AcBd|c4z2:|
g2|g3`fe2|e2d2`a2|a3`gf2|f2e2g2|g3`fe2|a2g2`f2|e3`fd2|c6  :|
   c2c2c2|cBdB`G2|g2g2g2|fegec2|c2c2c2|cBdB`G2|g2gefd|c4  :|
e2|e3`fg2|a2a2`a2|d2e2f2|g2g2g2|c3`de2|f2f2`f2|d2B2G2|c4  :|

